X: 1616
T: Ruhnüvaz Sazsemâîsi
C: Suphi Ezgi
O: Turkey
F: http://compmusic.upf.edu/node/140
N: ruhnuvaz--sazsemaisi--aksaksemai----suphi_ezgi
N: makam= ruhnuvaz
N: form= sazsemaisi
N: usul= aksaksemai = 10/8
M: 10/8
L: 1/16
K: C ^9/8f   
Q: 1/4=120
%%MIDI tuningsystem comma53
e4 ^defg a2g2 fed4c'2  | b4 agfg a2c'b ^a2b6  | 
w:   |   | 
d'4 c'be'2 d'c'b2 agf4a2  | g4 ^d2B6 cde4z2  | \
w:   |   | 
dcde c2B4A2 G2cB cdc2  | 
w:   | 
GFGA G2F3E^D3EF4EF  | G4 FE^D4c4BA G4  | \
w:   |   | 
FGAc BAAG GFFE E^DE4z2  | 
w:   | 
e4 ^defg a2g2 fed4c'2  | b4 agfg a2c'b ^a2b6  | 
w:   |   | 
d'4 c'be'2 d'c'b2 agf4a2  | g4 ^d2B6 cde4z2  | \
w:   |   | 
dcde c2B4A2 G2cB cdc2  | 
w:   | 
GFGA G2F3E^D3EF4EF  | G4 FE^D4c4BA G4  | \
w:   |   | 
FGAc BAAG GFFE E^DE4z2  | 
w:   | 
|


